!!!SOCIAL_FUNCTION:	bird dance songs
!!!PDT:	1956
!!!OTL: No_127_Catfish_Dance_Song_(a).krn
!!!LANG: Non-Tone
!!!LING_GROUP: Muskogean
!!!REG: Florida
**kern
*staff1
=1-
*clefF4
*k[b-]
*M3/4
4G\
2c\
=2
2.c\
=3
4A\
2G\
=4
4G\
2c\
=5
4c\
2d\
=6
4c\
2G\
=7
4F\
2F\
=8||
*M2/4
4B-\
8G\L
8F\J
=9
2F\
=10
4D\
4C/
=11||
*M3/4
4C/
2F\
=12
4F\
2G\
=13
4F\
2C/
=14
4BB-/
2BB-/
=15||
*M2/4
4C/
8.D/L
16C/Jk
=16
2C/
==
*-
